X: 1
T: Benedict's Fancy
M: 6/8
L: 1/8
R: jig
K: Dmaj
GGG dBA|GAB AFD|GGG dBA|BAA A3|
GGG dBA|GAB AFD|GGG dBG|AGG G3:|
dgg fed|dgg f3|dgg dBA|BAA A3|
dgg fed|dgg e3|dgg dBG|AGG G3:|
